logos/supabase.svg

<?xml version="1.0" encoding="UTF-8"?>
<svg width="512px" height="99px" viewBox="0 0 512 99" version="1.1" xmlns="http://www.w3.org/2000/svg" xmlns:xlink="http://www.w3.org/1999/xlink" preserveAspectRatio="xMidYMid">
    <title>supabase</title>
    <defs>
        <linearGradient x1="20.8617445%" y1="20.6868812%" x2="63.4256086%" y2="44.0710077%" id="supabase-linearGradient-1">
            <stop stop-color="#249361" offset="0%"></stop>
            <stop stop-color="#3ECF8E" offset="100%"></stop>
        </linearGradient>
        <linearGradient x1="1.99116498%" y1="-13.1584008%" x2="21.4025077%" y2="34.708062%" id="supabase-linearGradient-2">
            <stop stop-color="#000000" offset="0%"></stop>
            <stop stop-color="#000000" stop-opacity="0" offset="100%"></stop>
        </linearGradient>
    </defs>
    <g>
				<path d="M253.816046,26.4118078 C266.506083,26.4118078 273.819659,36.1172253 273.819659,48.9987689 C273.819659,62.1451219 265.624855,71.8507159 253.375873,71.8507159 C247.5131,71.8507159 243.168153,69.5707695 241.002515,66.7459305 L240.861375,66.5568197 L240.861375,87.5556296 L229.141659,87.5556296 L229.141659,27.3823054 L240.509413,27.3823054 L240.509413,32.6762016 C242.448291,29.3233007 247.295487,26.4118078 253.816046,26.4118078 Z M150.887898,26.0588755 C159.470294,26.0588755 164.086962,29.8589302 166.28002,33.7462562 L166.478566,34.1108354 L166.478566,34.1108354 L166.663194,34.4752461 C166.722448,34.5966127 166.779429,34.7178379 166.834185,34.8388085 L166.991823,35.2008427 L166.991823,35.2008427 L167.136389,35.560669 L167.136389,35.560669 L167.268166,35.9176075 C167.289079,35.9768189 167.309471,36.0358815 167.329347,36.0947814 L167.44247,36.4461135 L167.44247,36.4461135 L167.54351,36.7928583 L167.54351,36.7928583 L167.63275,37.1343358 C167.646655,37.190772 167.660081,37.2469604 167.673033,37.3028869 L167.745101,37.6351889 L167.745101,37.6351889 L167.806074,37.9605242 L167.806074,37.9605242 L167.856234,38.2782128 L167.856234,38.2782128 L167.895865,38.587575 L158.114145,40.7933798 C157.761301,38.2345545 155.910634,34.9701292 150.976109,34.9701292 C147.89137,34.9701292 145.424108,36.8228253 145.424108,39.2933513 C145.424108,41.3447703 146.912563,42.6508851 149.168504,43.131579 L149.389193,43.1755184 L155.558672,44.4988601 C164.10632,46.2636098 168.425131,51.4692067 168.425131,57.8218998 C168.425131,64.8802811 162.960459,72.1151726 151.592704,72.1151726 C143.033313,72.1151726 138.155467,68.4674004 135.664026,64.5631256 L135.43392,64.1906228 C135.359595,64.0662691 135.287634,63.9417653 135.217995,63.8172201 L135.016004,63.4435683 C134.91845,63.2567886 134.826027,63.0701597 134.738597,62.8840477 L134.57035,62.5126215 C134.516459,62.3891148 134.464744,62.2659464 134.415166,62.1432247 L134.272796,61.7765084 L134.272796,61.7765084 L134.142992,61.4131236 C134.122391,61.3528733 134.102304,61.2927889 134.082724,61.2328839 L133.971303,60.875717 L133.971303,60.875717 L133.871825,60.523509 L133.871825,60.523509 L133.784043,60.1769109 L133.784043,60.1769109 L133.707707,59.8365739 L133.707707,59.8365739 L133.64257,59.5031488 L133.64257,59.5031488 L133.588382,59.1772867 L133.588382,59.1772867 L133.544895,58.8596386 L133.544895,58.8596386 L133.527087,58.7040982 L143.57344,56.4982935 C143.837191,59.9393172 146.393547,63.1157078 151.504493,63.1157078 C155.38225,63.1157078 157.232917,61.0864133 157.232917,58.7923975 C157.232917,56.9053187 155.983074,55.3515871 152.836509,54.6181444 L152.562143,54.5572982 L146.83372,53.23378 C138.461612,51.3810839 134.672948,46.3517326 134.672948,40.263849 C134.672948,32.4996914 141.546351,26.0588755 150.887898,26.0588755 Z M445.731471,26.0588755 C454.179766,26.0588755 458.784881,29.7411063 461.018621,33.5641159 L461.224235,33.9285244 C461.422774,34.2931319 461.600228,34.6579965 461.757868,35.0200591 L461.90895,35.3810744 L461.90895,35.3810744 L462.047106,35.7395418 C462.112999,35.9180252 462.174151,36.0952982 462.23072,36.2709784 L462.337795,36.6201018 C462.354638,36.6778973 462.370983,36.7354875 462.386838,36.7928583 L462.476112,37.1343358 C462.490023,37.190772 462.503455,37.2469604 462.516413,37.3028869 L462.588522,37.6351889 C462.599608,37.6900109 462.610232,37.7445426 462.6204,37.7987699 L462.67598,38.1203668 C462.684346,38.1733196 462.692268,38.2259397 462.699752,38.2782128 L462.739438,38.587575 L452.9586,40.7933798 L452.911055,40.4952252 C452.865751,40.2445301 452.80605,39.988723 452.730537,39.7313333 L452.632242,39.421932 C451.872105,37.202349 449.900731,34.9701292 445.8188,34.9701292 C442.73406,34.9701292 440.26768,36.8228253 440.26768,39.2933513 C440.26768,41.3447703 441.755308,42.6508851 444.011197,43.131579 L444.231883,43.1755184 L450.401362,44.4988601 C458.949892,46.2636098 463.26694,51.4692067 463.26694,57.8218998 C463.26694,64.8802811 457.804031,72.1151726 446.435395,72.1151726 C438.012437,72.1151726 433.154341,68.5822836 430.627618,64.748836 L430.390333,64.3770274 L430.390333,64.3770274 L430.167355,64.0039933 L430.167355,64.0039933 L429.958437,63.6303846 L429.958437,63.6303846 L429.763329,63.2568525 C429.669186,63.070214 429.580129,62.8838483 429.496019,62.6981216 L429.334351,62.3276287 L429.334351,62.3276287 L429.185624,61.9594908 C429.1619,61.8983669 429.138706,61.8373683 429.116035,61.7765084 L428.986254,61.4131236 L428.986254,61.4131236 L428.868793,61.0537213 L428.868793,61.0537213 L428.763404,60.6989524 C428.746831,60.6402465 428.730751,60.5817609 428.715158,60.523509 L428.627411,60.1769109 L428.627411,60.1769109 L428.551113,59.8365739 L428.551113,59.8365739 L428.486018,59.5031488 L428.486018,59.5031488 L428.431877,59.1772867 L428.431877,59.1772867 L428.388441,58.8596386 L428.388441,58.8596386 L428.37066,58.7040982 L438.417013,56.4982935 C438.681646,59.9393172 441.236237,63.1157078 446.348066,63.1157078 C450.225822,63.1157078 452.076489,61.0864133 452.076489,58.7923975 C452.076489,56.9053187 450.82748,55.3515871 447.680151,54.6181444 L447.405716,54.5572982 L441.677292,53.23378 C433.304302,51.3810839 429.516521,46.3517326 429.516521,40.263849 C429.516521,32.4996914 436.389041,26.0588755 445.731471,26.0588755 Z M490.585893,26.0588755 C503.981618,26.0588755 512,34.6171087 512,48.5575374 L511.993023,49.1619668 L511.993023,49.1619668 L511.97452,49.7566274 L511.97452,49.7566274 L511.94813,50.324144 L511.94813,50.324144 L511.88625,51.3082456 L511.88625,51.3082456 L511.82528,52.146443 L511.82528,52.146443 L511.82446,52.1751595 L480.805055,52.1751595 C481.067923,57.9100226 485.915119,62.0569109 491.731754,62.0569109 C497.086269,62.0569109 500.071225,59.4299794 501.516027,55.6712036 L501.602567,55.439673 L511.384287,58.3511659 C509.180776,65.8507787 502.306491,72.1151726 491.643543,72.1151726 C479.74564,72.1151726 469.259114,63.5567629 469.259114,48.9105579 C469.259114,35.058252 479.482771,26.0588755 490.585893,26.0588755 Z M299.933649,26.0588755 C312.993115,26.0588755 318.259513,33.0660277 318.753504,41.2557693 L318.778386,41.7745342 C318.784584,41.9479437 318.788695,42.1218231 318.790746,42.2961178 L318.792283,42.5578648 L318.793888,64.2272905 L318.793888,64.2272905 L318.806286,64.8864701 L318.806286,64.8864701 L318.829952,65.5689208 L318.829952,65.5689208 L318.863711,66.2639036 C318.870113,66.3801818 318.876887,66.4965346 318.884007,66.6127385 L318.930697,67.3063832 L318.930697,67.3063832 L318.984537,67.9857119 L318.984537,67.9857119 L319.04435,68.6399854 L319.04435,68.6399854 L319.108958,69.2584644 L319.108958,69.2584644 L319.177184,69.8304098 L319.177184,69.8304098 L319.247853,70.3450822 C319.259769,70.4254916 319.271738,70.5030672 319.283735,70.5775851 L319.319785,70.7917426 L308.568626,70.7917426 C308.36626,69.9145515 308.215477,68.3151382 308.155724,66.8613607 L308.134753,66.2038876 C308.130013,65.9902837 308.127571,65.7832869 308.127571,65.5860574 C305.924942,69.0270811 301.782552,72.0270497 295.351087,72.0270497 C286.096869,72.0270497 280.457538,65.7626559 280.457538,58.9688195 C280.457538,51.3154045 286.023462,47.0054862 293.103442,45.8698426 L293.412209,45.8224665 L304.075157,44.2343152 C306.543301,43.8814712 307.335436,42.646164 307.335436,41.1462238 C307.335436,38.0581324 304.956385,35.4994836 300.020096,35.4994836 C295.004663,35.4994836 292.195159,38.6442086 291.759221,42.3476563 L291.737081,42.5578648 L281.338766,40.3521482 C282.04269,33.5583118 288.30038,26.0588755 299.933649,26.0588755 Z M401.398376,26.0588755 C414.458679,26.0588755 419.72512,33.0660277 420.219113,41.2557693 L420.243995,41.7745342 C420.250193,41.9479437 420.254303,42.1218231 420.256355,42.2961178 L420.257892,42.5578648 L420.259507,64.2272905 L420.259507,64.2272905 L420.271979,64.8864701 L420.271979,64.8864701 L420.295772,65.5689208 C420.300614,65.6840053 420.305878,65.7996119 420.311538,65.9155169 L420.350061,66.6127385 C420.357208,66.7289423 420.364702,66.8449971 420.372517,66.9606792 L420.423067,67.6485083 L420.423067,67.6485083 L420.480135,68.3166518 L420.480135,68.3166518 L420.542519,68.9543704 C420.553293,69.0575248 420.564238,69.1589641 420.57533,69.2584644 L420.643437,69.8304098 C420.67817,70.1029592 420.71377,70.3540312 420.749562,70.5775851 L420.785394,70.7917426 L410.034235,70.7917426 C409.894602,70.1844564 409.779198,69.2310165 409.701505,68.2193919 L409.655444,67.5395158 C409.648748,67.4258198 409.642554,67.3121956 409.636881,67.1990381 L409.609245,66.5288538 C409.598701,66.1997223 409.59318,65.8819016 409.59318,65.5860574 C407.391433,69.0270811 403.248161,72.0270497 396.815813,72.0270497 C387.562477,72.0270497 381.923147,65.7626559 381.923147,58.9688195 C381.923147,51.3154045 387.48907,47.0054862 394.56905,45.8698426 L394.877817,45.8224665 L405.539883,44.2343152 C408.008028,43.8814712 408.801045,42.646164 408.801045,41.1462238 C408.801045,38.0581324 406.421994,35.4994836 401.485705,35.4994836 C396.470271,35.4994836 393.660768,38.6442086 393.223996,42.3476563 L393.201808,42.5578648 L382.804375,40.3521482 C383.509181,33.5583118 389.765989,26.0588755 401.398376,26.0588755 Z M188.784235,27.3822172 L188.784235,52.4397044 C188.784235,57.2923691 191.252379,61.1745361 196.71617,61.1745361 C201.825687,61.1745361 204.80702,57.7660352 204.908306,52.8749125 L204.910974,52.6161264 L204.910974,27.3822172 L216.632454,27.3822172 L216.632454,62.9391093 C216.632454,63.1874724 216.633906,63.4338979 216.636667,63.6779199 L216.648731,64.4023089 L216.648731,64.4023089 L216.667787,65.1094799 L216.667787,65.1094799 L216.692973,65.7966364 L216.692973,65.7966364 L216.740366,66.7837267 L216.740366,66.7837267 L216.777115,67.4086122 L216.777115,67.4086122 L216.837818,68.2891873 L216.837818,68.2891873 L216.902635,69.0932691 L216.902635,69.0932691 L216.990439,70.0300755 L216.990439,70.0300755 L217.053562,70.6189686 L217.053562,70.6189686 L217.073509,70.7917426 L205.881295,70.7917426 L205.853472,70.6430949 L205.853472,70.6430949 L205.79848,70.2935517 C205.780397,70.16625 205.762629,70.0287096 205.745381,69.8825773 L205.695395,69.4200503 C205.687392,69.3392153 205.679569,69.2566438 205.671953,69.1725418 L205.628931,68.6512089 L205.628931,68.6512089 L205.592079,68.1030205 L205.592079,68.1030205 L205.562619,67.5378556 C205.558393,67.4427955 205.554526,67.3474397 205.551044,67.251994 L205.534964,66.6798868 C205.531278,66.4899223 205.529333,66.3012445 205.529333,66.1155 C203.150282,70.1741773 198.1249,71.9387505 193.543219,71.9387505 C183.168579,71.9387505 177.19302,64.4268179 177.065713,55.1259358 L177.063637,54.8220194 L177.063637,27.3822172 L188.784235,27.3822172 Z M342.150562,6.91280576 L342.150562,32.1466709 C344.08944,29.0587559 348.847542,26.2353857 355.281654,26.2353857 C367.971692,26.2353857 375.287032,36.0289261 375.287032,48.9106461 C375.287032,62.0569991 367.179557,71.8507159 354.840599,71.8507159 C348.972398,71.8507159 344.456532,69.3129085 342.121121,65.7282389 L341.975022,65.4980228 L341.975022,70.791919 L330.606385,70.791919 L330.606385,6.91280576 L342.150562,6.91280576 Z M307.335436,53.23378 L307.335436,51.2927847 L297.553716,52.7927249 C294.556306,53.23378 292.177254,54.9102304 292.177254,58.2630431 C292.177254,60.821692 294.028804,63.2921298 297.817467,63.2921298 C302.681346,63.2921298 307.202534,60.9785384 307.332561,53.5642013 L307.335436,53.23378 Z M408.801045,53.23378 L408.801045,51.2927847 L399.019325,52.7927249 C396.021914,53.23378 393.642863,54.9102304 393.642863,58.2630431 C393.642863,60.821692 395.494412,63.2921298 399.283958,63.2921298 C404.146967,63.2921298 408.668143,60.9785384 408.79817,53.5642013 L408.801045,53.23378 Z M251.524323,36.9112127 C245.533031,36.9112127 240.685835,41.4110333 240.685835,49.0870681 C240.685835,56.7631911 245.533031,61.3511345 251.524323,61.3511345 C257.51738,61.3511345 262.275483,56.8514904 262.275483,49.0870681 C262.275483,41.4110333 257.51738,36.9112127 251.524323,36.9112127 Z M352.81351,36.7347907 C346.909546,36.7347907 341.975022,41.0580128 341.975022,48.9987689 C341.975022,56.8514904 346.909546,61.3511345 352.81351,61.3511345 C358.806567,61.3511345 363.564669,56.9396132 363.564669,48.9987689 C363.564669,41.0580128 358.806567,36.7347907 352.81351,36.7347907 Z M490.762315,35.5876064 C484.784986,35.5876064 481.446879,40.0215147 481.084036,43.9436298 L481.067923,44.146016 L500.456706,44.146016 C500.280284,39.8227939 497.459295,35.5876064 490.762315,35.5876064 Z" fill="#1F1F1F"></path>
				<g>
						<path d="M56.1753725,97.0963572 C53.6529783,100.272836 48.5385916,98.5324326 48.4778142,94.4764899 L47.5890881,35.1534317 L87.4778471,35.1534317 C94.7027707,35.1534317 98.7322501,43.4982825 94.2396629,49.1566666 L56.1753725,97.0963572 Z" fill="url(#supabase-linearGradient-1)"></path>
						<path d="M56.1753725,97.0963572 C53.6529783,100.272836 48.5385916,98.5324326 48.4778142,94.4764899 L47.5890881,35.1534317 L87.4778471,35.1534317 C94.7027707,35.1534317 98.7322501,43.4982825 94.2396629,49.1566666 L56.1753725,97.0963572 Z" fill-opacity="0.2" fill="url(#supabase-linearGradient-2)"></path>
						<path d="M39.9528365,1.64059183 C42.4752306,-1.53623987 47.5897056,0.20443438 47.650483,4.26043268 L48.0399347,63.5834026 L8.65038837,63.5834026 C1.42524419,63.5834026 -2.60434991,55.2385519 1.8884579,49.5801677 L39.9528365,1.64059183 Z" fill="#3ECF8E"></path>
				</g>
    </g>
</svg>

<?xml version="1.0" encoding="UTF-8"?>
<svg width="512" height="99" version="1.1" xmlns="http://www.w3.org/2000/svg" preserveAspectRatio="xMidYMid">
	<defs>
		<linearGradient x1="20.862%" y1="20.687%" x2="63.426%" y2="44.071%" id="a">
			<stop stop-color="#249361" offset="0%"/>
			<stop stop-color="#3ECF8E" offset="100%"/>
		</linearGradient>
		<linearGradient x1="1.991%" y1="-13.158%" x2="21.403%" y2="34.708%" id="b">
			<stop stop-color="#000" offset="0%"/>
			<stop stop-color="#000" stop-opacity="0" offset="100%"/>
		</linearGradient>
	</defs>
	<path d="M253.816 26.412c12.69 0 20.004 9.705 20.004 22.587 0 13.146-8.195 22.852-20.444 22.852-5.863 0-10.208-2.28-12.373-5.105l-.142-.19v21h-11.72V27.382h11.368v5.294c1.94-3.353 6.786-6.264 13.307-6.264Zm-102.928-.353c8.582 0 13.199 3.8 15.392 7.687l.199.365.184.364c.06.122.116.243.171.364l.158.362.144.36.132.357.061.177.113.351.102.347.089.341.04.169.072.332.061.326.05.317.04.31-9.782 2.205c-.353-2.558-2.203-5.823-7.138-5.823-3.085 0-5.552 1.853-5.552 4.323 0 2.052 1.489 3.358 3.745 3.839l.22.044 6.17 1.323c8.547 1.765 12.866 6.97 12.866 13.323 0 7.058-5.465 14.293-16.832 14.293-8.56 0-13.438-3.648-15.929-7.552l-.23-.372a14.936 14.936 0 0 1-.216-.374l-.202-.373c-.098-.187-.19-.374-.277-.56l-.169-.371a14.572 14.572 0 0 1-.155-.37l-.142-.366-.13-.364-.06-.18-.112-.357-.1-.352-.087-.347-.076-.34-.065-.334-.055-.326-.043-.317-.018-.156 10.046-2.206c.264 3.441 2.82 6.618 7.931 6.618 3.878 0 5.729-2.03 5.729-4.324 0-1.887-1.25-3.44-4.396-4.174l-.275-.06-5.728-1.324c-8.372-1.853-12.161-6.882-12.161-12.97 0-7.764 6.873-14.205 16.215-14.205Zm294.843 0c8.449 0 13.054 3.682 15.288 7.505l.205.365c.199.364.376.729.534 1.091l.151.361.138.359c.066.178.127.355.184.531l.107.35.049.172.09.341.04.169.072.332.031.164.056.321.024.158.04.31-9.781 2.205-.048-.298a7.376 7.376 0 0 0-.18-.764l-.099-.31c-.76-2.219-2.731-4.45-6.813-4.45-3.085 0-5.551 1.852-5.551 4.322 0 2.052 1.487 3.358 3.743 3.839l.22.044 6.17 1.323c8.549 1.765 12.866 6.97 12.866 13.323 0 7.058-5.463 14.293-16.832 14.293-8.423 0-13.28-3.533-15.807-7.366l-.238-.372-.223-.373-.209-.374-.195-.373a14.773 14.773 0 0 1-.267-.559l-.162-.37-.148-.369a14.348 14.348 0 0 1-.07-.182l-.13-.364-.117-.36-.106-.354a13.384 13.384 0 0 1-.048-.175l-.088-.347-.076-.34-.065-.334-.054-.326-.044-.317-.017-.156 10.046-2.206c.265 3.441 2.82 6.618 7.931 6.618 3.878 0 5.728-2.03 5.728-4.324 0-1.887-1.249-3.44-4.396-4.174l-.274-.06-5.729-1.324c-8.373-1.853-12.16-6.882-12.16-12.97 0-7.764 6.872-14.205 16.214-14.205Zm44.855 0c13.396 0 21.414 8.558 21.414 22.499l-.007.604-.018.595-.027.567-.062.984-.06.838-.002.03h-31.019c.263 5.734 5.11 9.88 10.927 9.88 5.354 0 8.34-2.626 9.784-6.385l.087-.231 9.781 2.911c-2.203 7.5-9.078 13.764-19.74 13.764-11.898 0-22.385-8.558-22.385-23.204 0-13.853 10.224-22.852 21.327-22.852Zm-190.652 0c13.06 0 18.326 7.007 18.82 15.197l.024.519c.007.173.01.347.013.521l.001.262.002 21.67.012.658.024.683.034.695.02.349.047.693.054.68.06.654.064.618.068.572.07.515.037.233.036.214h-10.751c-.203-.877-.354-2.477-.413-3.93l-.021-.658c-.005-.214-.007-.42-.007-.618-2.203 3.441-6.345 6.441-12.777 6.441-9.254 0-14.893-6.264-14.893-13.058 0-7.654 5.565-11.964 12.645-13.1l.31-.047 10.662-1.588c2.468-.353 3.26-1.588 3.26-3.088 0-3.088-2.379-5.647-7.315-5.647-5.015 0-7.825 3.145-8.26 6.849l-.023.21-10.398-2.206c.704-6.794 6.961-14.293 18.595-14.293Zm101.464 0c13.06 0 18.327 7.007 18.821 15.197l.025.519c.006.173.01.347.012.521l.002.262.002 21.67.012.658.024.683.016.347.038.697.023.348.05.688.057.668.063.637.032.304.068.572c.035.273.07.524.107.748l.035.214h-10.75c-.14-.608-.256-1.561-.333-2.573l-.047-.68a39.063 39.063 0 0 1-.018-.34l-.028-.67c-.01-.33-.016-.647-.016-.943-2.202 3.441-6.345 6.441-12.777 6.441-9.254 0-14.893-6.264-14.893-13.058 0-7.654 5.566-11.964 12.646-13.1l.309-.047 10.662-1.588c2.468-.353 3.261-1.588 3.261-3.088 0-3.088-2.379-5.647-7.315-5.647-5.016 0-7.825 3.145-8.262 6.849l-.022.21-10.398-2.206c.705-6.794 6.962-14.293 18.594-14.293Zm-212.614 1.323V52.44c0 4.852 2.468 8.735 7.932 8.735 5.11 0 8.091-3.409 8.192-8.3l.003-.259V27.382h11.721V62.94c0 .248.002.495.005.739l.012.724.019.707.025.688.047.987.037.625.06.88.066.804.087.937.064.589.02.173H205.88l-.028-.149-.055-.35a17.642 17.642 0 0 1-.053-.41l-.05-.463-.023-.247-.043-.522-.037-.548-.03-.565-.011-.286-.016-.572c-.004-.19-.006-.379-.006-.565-2.379 4.06-7.404 5.824-11.986 5.824-10.374 0-16.35-7.512-16.477-16.813l-.002-.304v-27.44h11.72Zm153.367-20.47v25.235c1.938-3.088 6.697-5.912 13.13-5.912 12.69 0 20.006 9.794 20.006 22.676 0 13.146-8.107 22.94-20.446 22.94-5.869 0-10.384-2.538-12.72-6.123l-.146-.23v5.294h-11.369V6.912h11.545Zm-34.816 46.322v-1.941l-9.781 1.5c-2.998.44-5.377 2.117-5.377 5.47 0 2.559 1.852 5.03 5.64 5.03 4.864 0 9.386-2.314 9.516-9.729l.002-.33Zm101.466 0v-1.941l-9.782 1.5c-2.997.44-5.376 2.117-5.376 5.47 0 2.559 1.851 5.03 5.641 5.03 4.863 0 9.384-2.314 9.514-9.729l.003-.33ZM251.524 36.91c-5.991 0-10.838 4.5-10.838 12.176s4.847 12.264 10.838 12.264c5.993 0 10.751-4.5 10.751-12.264 0-7.676-4.758-12.176-10.75-12.176Zm101.29-.176c-5.904 0-10.839 4.323-10.839 12.264 0 7.852 4.935 12.352 10.839 12.352 5.993 0 10.75-4.411 10.75-12.352 0-7.941-4.757-12.264-10.75-12.264Zm137.948-1.147c-5.977 0-9.315 4.434-9.678 8.356l-.016.202h19.389c-.177-4.323-2.998-8.558-9.695-8.558Z" fill="#1F1F1F"/>
	<path d="M56.175 97.096c-2.522 3.177-7.636 1.436-7.697-2.62l-.889-59.323h39.889c7.225 0 11.254 8.345 6.762 14.004l-38.065 47.94Z" fill="url(#a)"/>
	<path d="M56.175 97.096c-2.522 3.177-7.636 1.436-7.697-2.62l-.889-59.323h39.889c7.225 0 11.254 8.345 6.762 14.004l-38.065 47.94Z" fill-opacity=".2" fill="url(#b)"/>
	<path d="M39.953 1.64C42.475-1.535 47.59.205 47.65 4.26l.39 59.323H8.65c-7.225 0-11.254-8.344-6.762-14.003L39.953 1.64Z" fill="#3ECF8E"/>
</svg>
